X: 2640
T: Bang It Up
R: reel
M: 4/4
K: Gmajor
GA|B2 GA B2 GB|dcBc A2 FG|A2 FG A2 dc|BcAB G2 GA|
B2 GA B2 GB|dcBc A2 FG|AGFG A2 dc|BcAB G2||
|:dc|BcBA G2 gf|efed e2 z2|ABAG FAdc|BcAB G2:|

